X:8
T:Dancing Up A Storm
C:Kathy Talvitie 1999
N: For the wedding of Kathy Anderson and Charles Krausche on October 16, 1999
M:3/4
K:G
D AB| "G"B2 c2>B2 | "D"B2 A2 AB| "Cmaj7" B2G2E2 |"D" E2 DE GA | 
"G"B2c2d2 | "Em" d2 g4 | "C" e2d2B2 | "D"A2G2A2|
"G"B4 cB | "D"B2 A2>B2|"C"c2B2G2 |"D"E2D2C2|
"G" [D2B,2] G4| "D"G4 F2|"C"G6-|"G      Fine"G6  |]
"C"G2>E2 FG| "D"A4 "C" G2 | "D"F2 G2 "C"E2 | "G"D2 B,2 D2|
"C"E6 | "Bm"D6 | "Am"C2D2E2 | "D"[D2A,2] D2 F2|
"C"G2>E2 FG| "D"A4 B2 | "C"B2 c4 | "D" A2 c4 | 
"G"B6| "Em" B2G2E2 | "D"A6-|A2"D.C.al Fine"|]
